boxicons/svg/regular/bx-coin-stack.svg

<svg xmlns="http://www.w3.org/2000/svg" width="24" height="24" viewBox="0 0 24 24"><path d="M12 22c3.976 0 8-1.374 8-4V6c0-2.626-4.024-4-8-4S4 3.374 4 6v12c0 2.626 4.024 4 8 4zm0-2c-3.722 0-6-1.295-6-2v-1.268C7.541 17.57 9.777 18 12 18s4.459-.43 6-1.268V18c0 .705-2.278 2-6 2zm0-16c3.722 0 6 1.295 6 2s-2.278 2-6 2-6-1.295-6-2 2.278-2 6-2zM6 8.732C7.541 9.57 9.777 10 12 10s4.459-.43 6-1.268V10c0 .705-2.278 2-6 2s-6-1.295-6-2V8.732zm0 4C7.541 13.57 9.777 14 12 14s4.459-.43 6-1.268V14c0 .705-2.278 2-6 2s-6-1.295-6-2v-1.268z"/></svg>

<svg xmlns="http://www.w3.org/2000/svg" width="24" height="24" viewBox="0 0 24 24"><path d="M12,22c3.976,0,8-1.374,8-4v-4v-4V6c0-2.626-4.024-4-8-4S4,3.374,4,6v4v4v4C4,20.626,8.024,22,12,22z M12,20 c-3.722,0-6-1.295-6-2v-1.268C7.541,17.57,9.777,18,12,18s4.459-0.43,6-1.268V18C18,18.705,15.722,20,12,20z M12,4 c3.722,0,6,1.295,6,2s-2.278,2-6,2S6,6.705,6,6S8.278,4,12,4z M6,8.732C7.541,9.57,9.777,10,12,10s4.459-0.43,6-1.268V10 c0,0.705-2.278,2-6,2s-6-1.295-6-2V8.732z M6,12.732C7.541,13.57,9.777,14,12,14s4.459-0.43,6-1.268V14c0,0.705-2.278,2-6,2 s-6-1.295-6-2V12.732z"/></svg>
